icons/outline/command-line.svg

<svg width="24" height="24" viewBox="0 0 24 24" fill="none" xmlns="http://www.w3.org/2000/svg">
<path d="M6.75 7.5L9.75 9.75L6.75 12M11.25 12H14.25M5.25 20.25H18.75C19.9926 20.25 21 19.2426 21 18V6C21 4.75736 19.9926 3.75 18.75 3.75H5.25C4.00736 3.75 3 4.75736 3 6V18C3 19.2426 4.00736 20.25 5.25 20.25Z" stroke="#0F172A" stroke-width="1.5" stroke-linecap="round" stroke-linejoin="round"/>
</svg>

<svg xmlns="http://www.w3.org/2000/svg" fill="none" viewBox="0 0 24 24" stroke-width="1.5" stroke="currentColor" aria-hidden="true" data-slot="icon">
  <path stroke-linecap="round" stroke-linejoin="round" d="m6.75 7.5 3 2.25-3 2.25m4.5 0h3m-9 8.25h13.5A2.25 2.25 0 0 0 21 18V6a2.25 2.25 0 0 0-2.25-2.25H5.25A2.25 2.25 0 0 0 3 6v12a2.25 2.25 0 0 0 2.25 2.25Z"/>
</svg>
